X: 7
T: Maker Tower
%R: jig
B: "Twenty Four Country Dances for the Year 1780", Thomas Skillern, ed. p.4 #1
F: http://www.vwml.org/browse/browse-collections-dance-tune-books/browse-skillerns1780#
Z: 2014 John Chambers <jc:trillian.mit.edu>
M: 6/8
L: 1/8
K: D
|:\
dfg afd | gec d2d | FGA G2B | ABG F2D |\
dfg afd | gec d2d | fgf e2d | cde A3 :|
|:\
[a2A2]a gfe | [g2A2]g fed | [f2A2]f efd | cdB A2A |\
[a2A2]a gfe | [g2A2]g fed | fed efg | fge d3 :|
%%begintext align
%%   The First and Second Cu. change
%% Sides the same Back again Cross
%% over 2 Cu. Lead up one Cu. Sett
%% Corner and turn, Lead Outsides.
%%endtext

%%sep 1 1 500
%%sep 1 1 500
